public/avatar/item2/46.svg

<svg xmlns:xlink="http://www.w3.org/1999/xlink" height="99.2" width="82.2" xmlns="http://www.w3.org/2000/svg"><use height="9.9" transform="translate(33.3 71.45)" width="9.85" xlink:href="#a"/><defs><g id="a"><path d="M12.15 29.65q0 2-1.45 3.5-1.45 1.45-3.5 1.45-2 0-3.45-1.45-1.45-1.5-1.45-3.5 0-2.05 1.45-3.45 1.45-1.5 3.45-1.5 2.05 0 3.5 1.5 1.45 1.4 1.45 3.45" fill-rule="evenodd" transform="translate(-2.3 -24.7)"/><path d="m10.8 27.05-6.9 5.4" fill="none" stroke="#000" stroke-linecap="round" stroke-linejoin="round" transform="translate(-2.3 -24.7)"/><path d="m10.3 32.4-.15.2Q8.9 33.75 7.2 33.75q-1.7 0-2.85-1.15l-.25-.3 3.25-2.55-3.2-2.8.2-.2q1.15-1.2 2.85-1.15 1.7-.05 2.95 1.15l.45.5-3.25 2.5 2.95 2.65" fill="#009700" fill-rule="evenodd" transform="translate(-2.3 -24.7)"/><path d="M10.6 27.25q.75 1 .75 2.4 0 1.55-1.05 2.75l-2.95-2.65 3.25-2.5M4.1 32.3q-.95-1.15-.95-2.65 0-1.6 1-2.7l3.2 2.8L4.1 32.3" fill-rule="evenodd" transform="translate(-2.3 -24.7)"/><path d="m10.6 27.25-3.25 2.5 2.95 2.65m-6.15-5.45 3.2 2.8L4.1 32.3" fill="none" stroke="#ff0" stroke-linecap="round" stroke-linejoin="round" transform="translate(-2.3 -24.7)"/><path d="M4.5 27.15q1.3-.9 2.7-.9 1.8 0 2.8 1.1" fill="none" stroke="#fff" stroke-linecap="round" stroke-linejoin="round" stroke-opacity=".6" transform="translate(-2.3 -24.7)"/><path d="M10 32.4q-1.3.9-2.7.9-1.8 0-2.8-1.1" fill="none" stroke="#000" stroke-linecap="round" stroke-linejoin="round" stroke-opacity=".302" transform="translate(-2.3 -24.7)"/></g></defs></svg>

<?xml version="1.0" encoding="UTF-8" standalone="no"?>
<svg xmlns:xlink="http://www.w3.org/1999/xlink" height="99.2px" width="82.2px" xmlns="http://www.w3.org/2000/svg">
  <g transform="matrix(1.0, 0.0, 0.0, 1.0, 31.0, 46.75)">
    <use height="9.9" transform="matrix(1.0, 0.0, 0.0, 1.0, 2.3, 24.7)" width="9.85" xlink:href="#shape0"/>
  </g>
  <defs>
    <g id="shape0" transform="matrix(1.0, 0.0, 0.0, 1.0, -2.3, -24.7)">
      <path d="M12.15 29.65 Q12.15 31.65 10.7 33.15 9.25 34.6 7.2 34.6 5.2 34.6 3.75 33.15 2.3 31.65 2.3 29.65 2.3 27.6 3.75 26.2 5.2 24.7 7.2 24.7 9.25 24.7 10.7 26.2 12.15 27.6 12.15 29.65" fill="#000000" fill-rule="evenodd" stroke="none"/>
      <path d="M10.8 27.05 L3.9 32.45" fill="none" stroke="#000000" stroke-linecap="round" stroke-linejoin="round" stroke-width="1.0"/>
      <path d="M10.3 32.4 L10.15 32.6 Q8.9 33.75 7.2 33.75 5.5 33.75 4.35 32.6 L4.1 32.3 7.35 29.75 4.15 26.95 4.35 26.75 Q5.5 25.55 7.2 25.6 8.9 25.55 10.15 26.75 L10.6 27.25 7.35 29.75 10.3 32.4" fill="#009700" fill-rule="evenodd" stroke="none"/>
      <path d="M10.6 27.25 Q11.35 28.25 11.35 29.65 11.35 31.2 10.3 32.4 L7.35 29.75 10.6 27.25 M4.1 32.3 Q3.15 31.15 3.15 29.65 3.15 28.05 4.15 26.95 L7.35 29.75 4.1 32.3" fill="#000000" fill-rule="evenodd" stroke="none"/>
      <path d="M10.6 27.25 L7.35 29.75 10.3 32.4 M4.15 26.95 L7.35 29.75 4.1 32.3" fill="none" stroke="#ffff00" stroke-linecap="round" stroke-linejoin="round" stroke-width="1.0"/>
      <path d="M4.5 27.15 Q5.8 26.25 7.2 26.25 9.0 26.25 10.0 27.35" fill="none" stroke="#ffffff" stroke-linecap="round" stroke-linejoin="round" stroke-opacity="0.6" stroke-width="1.0"/>
      <path d="M10.0 32.4 Q8.7 33.3 7.3 33.3 5.5 33.3 4.5 32.2" fill="none" stroke="#000000" stroke-linecap="round" stroke-linejoin="round" stroke-opacity="0.3019608" stroke-width="1.0"/>
    </g>
  </defs>
</svg>
